X: 8538
T: Crested Hens
R: waltz
M: 3/4
K: Edorian
|:"Em" E2 EG FE|B4 Bc|"Bm" dc Be dc|dc Bc BA|
"Em" E2 EG FE|B4 Bc|"Bm" dc Be de|1 B6:|2 B4 ef||
|:"Em" g2 Bg Bf|"Am" =c4 ef|"Em"ge "Am"ag fe|"B" ^d2 e2 f2|
"Em" g2 Bg Bf|"Am" =c4 ef|"Em"ge "Am"ag "B"f^d|1 "Em" e4 ef:|2 "Em"e6||

